src/icons/svg/ArrowLeftCaret.svg

<!-- Generated by IcoMoon.io -->
<svg version="1.1" xmlns="http://www.w3.org/2000/svg" width="24" height="24" viewBox="0 0 24 24">
<title>arrow-left-caret</title>
<path fill="#444" d="M13.724 5.42c-0.502 0.49-5.402 5.635-5.402 5.635-0.268 0.262-0.4 0.604-0.4 0.946s0.133 0.684 0.4 0.946c0 0 4.901 5.146 5.402 5.634 0.502 0.49 1.404 0.523 1.939 0 0.534-0.522 0.576-1.25-0.001-1.89l-4.496-4.69 4.496-4.69c0.578-0.64 0.535-1.37 0.001-1.891-0.536-0.522-1.438-0.49-1.939 0z"></path>
</svg>

<svg width="24" height="24" viewBox="0 0 24 24" fill="none" xmlns="http://www.w3.org/2000/svg">
<path d="M13.724 5.42C13.222 5.91 8.322 11.055 8.322 11.055C8.054 11.317 7.922 11.659 7.922 12.001C7.922 12.343 8.055 12.685 8.322 12.947C8.322 12.947 13.223 18.093 13.724 18.581C14.226 19.071 15.128 19.104 15.663 18.581C16.197 18.059 16.239 17.331 15.662 16.691L11.166 12.001L15.662 7.311C16.24 6.671 16.197 5.941 15.663 5.42C15.127 4.898 14.225 4.93 13.724 5.42V5.42Z" fill="#1C2125"/>
</svg>
